actions/scalable/view-calendar-wedding-anniversary.svg

<?xml version="1.0" encoding="UTF-8" standalone="no"?>
<!-- Created with Inkscape (http://www.inkscape.org/) -->

<svg
   xmlns:dc="http://purl.org/dc/elements/1.1/"
   xmlns:cc="http://creativecommons.org/ns#"
   xmlns:rdf="http://www.w3.org/1999/02/22-rdf-syntax-ns#"
   xmlns:svg="http://www.w3.org/2000/svg"
   xmlns="http://www.w3.org/2000/svg"
   xmlns:sodipodi="http://sodipodi.sourceforge.net/DTD/sodipodi-0.dtd"
   xmlns:inkscape="http://www.inkscape.org/namespaces/inkscape"
   width="22"
   height="22"
   id="svg3049"
   version="1.1"
   inkscape:version="0.48+devel r"
   sodipodi:docname="view-calendar-wedding-anniversary.svg"
   inkscape:export-filename="/home/uri/.kde/share/icons/NITRUX-KDE/16x16/actions/view-right-new.png"
   inkscape:export-xdpi="30"
   inkscape:export-ydpi="30">
  <defs
     id="defs3051" />
  <sodipodi:namedview
     id="base"
     pagecolor="#ffffff"
     bordercolor="#666666"
     borderopacity="1.0"
     inkscape:pageopacity="0.0"
     inkscape:pageshadow="2"
     inkscape:zoom="32"
     inkscape:cx="9.506715"
     inkscape:cy="10.839758"
     inkscape:document-units="px"
     inkscape:current-layer="layer1"
     showgrid="true"
     fit-margin-top="0"
     fit-margin-left="0"
     fit-margin-right="0"
     fit-margin-bottom="0"
     inkscape:window-width="1366"
     inkscape:window-height="669"
     inkscape:window-x="-4"
     inkscape:window-y="25"
     inkscape:window-maximized="1"
     inkscape:showpageshadow="false"
     borderlayer="true">
    <sodipodi:guide
       position="2.0000044,20.00003"
       orientation="18,0"
       id="guide4067" />
    <sodipodi:guide
       position="2.0000044,2.0000296"
       orientation="0,18"
       id="guide4069" />
    <sodipodi:guide
       position="20.000004,2.0000296"
       orientation="-18,0"
       id="guide4071" />
    <sodipodi:guide
       position="20.000004,20.00003"
       orientation="0,-18"
       id="guide4073" />
    <sodipodi:guide
       position="3.0000044,19.00003"
       orientation="16,0"
       id="guide4077" />
    <sodipodi:guide
       position="3.0000044,3.0000296"
       orientation="0,16"
       id="guide4079" />
    <sodipodi:guide
       position="19.000004,3.0000296"
       orientation="-16,0"
       id="guide4081" />
    <sodipodi:guide
       position="19.000004,19.00003"
       orientation="0,-16"
       id="guide4083" />
    <inkscape:grid
       type="xygrid"
       id="grid4085" />
  </sodipodi:namedview>
  <metadata
     id="metadata3054">
    <rdf:RDF>
      <cc:Work
         rdf:about="">
        <dc:format>image/svg+xml</dc:format>
        <dc:type
           rdf:resource="http://purl.org/dc/dcmitype/StillImage" />
        <dc:title />
      </cc:Work>
    </rdf:RDF>
  </metadata>
  <g
     inkscape:label="Capa 1"
     inkscape:groupmode="layer"
     id="layer1"
     transform="translate(-421.71429,-525.79074)">
    <path
       style="fill:#666666;fill-opacity:1;stroke:none"
       d="M 3 3 L 3 19 L 19 19 L 19 3 L 17 3 L 17 6 L 15 6 L 15 3 L 7 3 L 7 6 L 5 6 L 5 3 L 3 3 z M 4 7 L 18 7 L 18 18 L 4 18 L 4 7 z M 9.5 9 C 7.561 9 6 10.561 6 12.5 C 6 14.439 7.561 16 9.5 16 C 10.039612 16 10.544436 15.870591 11 15.654297 C 11.455564 15.870591 11.960388 16 12.5 16 C 14.439 16 16 14.439 16 12.5 C 16 10.561 14.439 9 12.5 9 C 11.960388 9 11.455564 9.1294093 11 9.3457031 C 10.544436 9.1294093 10.039612 9 9.5 9 z M 9.5 10 C 9.6718015 10 9.8400736 10.018081 10.001953 10.050781 C 9.3837343 10.681387 9 11.543049 9 12.5 C 9 13.456951 9.3837343 14.318613 10.001953 14.949219 C 9.8400736 14.981919 9.6718015 15 9.5 15 C 8.115 15 7 13.885 7 12.5 C 7 11.115 8.115 10 9.5 10 z M 12.5 10 C 13.885 10 15 11.115 15 12.5 C 15 13.885 13.885 15 12.5 15 C 12.328199 15 12.159927 14.981919 11.998047 14.949219 C 12.616266 14.318613 13 13.456951 13 12.5 C 13 11.543049 12.616266 10.681387 11.998047 10.050781 C 12.159927 10.018081 12.328199 10 12.5 10 z M 11 10.507812 C 11.604994 10.963266 12 11.681048 12 12.5 C 12 13.318952 11.604994 14.036735 11 14.492188 C 10.395006 14.036734 10 13.318952 10 12.5 C 10 11.681048 10.395006 10.963265 11 10.507812 z "
       transform="translate(421.71429,525.79074)"
       id="path4159" />
  </g>
</svg>

<svg height="22" width="22" xmlns="http://www.w3.org/2000/svg" xmlns:sodipodi="http://sodipodi.sourceforge.net/DTD/sodipodi-0.dtd" xmlns:inkscape="http://www.inkscape.org/namespaces/inkscape">
 <path d="m3 3v16h16v-16h-2v3h-2v-3h-8v3h-2v-3h-2zm1 4h14v11h-14v-11zm5.5 2c-1.939 0-3.5 1.561-3.5 3.5s1.561 3.5 3.5 3.5c0.54 0 1.044-0.129 1.5-0.346 0.456 0.217 0.96 0.346 1.5 0.346 1.939 0 3.5-1.561 3.5-3.5s-1.561-3.5-3.5-3.5c-0.54 0-1.044 0.1294-1.5 0.3457-0.456-0.2163-0.96-0.3457-1.5-0.3457zm0 1c0.1718 0 0.3401 0.018 0.502 0.051-0.6183 0.63-1.002 1.492-1.002 2.449s0.3837 1.819 1.002 2.449c-0.1619 0.033-0.3302 0.051-0.502 0.051-1.385 0-2.5-1.115-2.5-2.5s1.115-2.5 2.5-2.5zm3 0c1.385 0 2.5 1.115 2.5 2.5s-1.115 2.5-2.5 2.5c-0.172 0-0.34-0.018-0.502-0.051 0.618-0.63 1.002-1.492 1.002-2.449s-0.384-1.819-1.002-2.449c0.162-0.033 0.33-0.051 0.502-0.051zm-1.5 0.508c0.605 0.455 1 1.173 1 1.992s-0.395 1.537-1 1.992c-0.605-0.455-1-1.173-1-1.992s0.395-1.537 1-1.992z" fill="#4d4d4d" transform="matrix(1 0 0 1 0 0)"/>
</svg>
